X: 1
T:Lejsme Pers brudmarsch (Malung)
N:efter Herman Strmberg, Malung
A:Malung, Dalarna
O:Sweden
M:4/4
L:1/4
Q:1/4=150
K:D
A,|A,DDD|D2FD/F/|AFAd|A>GFF/A/|G2EF|GBA/G/F|F>EEE|E3::!\
A,|g3e/g/|fdfd/f/|a3d/f/|afaf/a/|b>age|c3e/g/|f>ddd|d3:|\
T:Andrastmma\
A,|A,GFE|F2DA,/D/|FDFA|F>EDD/F/|EA,CD|EGF/E/D|\
D>[CE][CE][CE]|[C3E3]::!\
A,|e3c/e/|dAdA/d/|f3A/d/|fdfd/f/|g>fec|A3c/e/|d>A A/B/A/G/|[F3A3]:|
